_inc/images/buttons/dualsense/button_cross.svg

<?xml version="1.0" encoding="UTF-8" standalone="no"?>
<svg
   id="Layer_1"
   data-name="Layer 1"
   viewBox="0 0 64 64"
   version="1.1"
   sodipodi:docname="button_cross.svg"
   width="64"
   height="64"
   inkscape:version="1.3.2 (091e20e, 2023-11-25, custom)"
   xmlns:inkscape="http://www.inkscape.org/namespaces/inkscape"
   xmlns:sodipodi="http://sodipodi.sourceforge.net/DTD/sodipodi-0.dtd"
   xmlns="http://www.w3.org/2000/svg"
   xmlns:svg="http://www.w3.org/2000/svg">
  <sodipodi:namedview
     id="namedview1"
     pagecolor="#505050"
     bordercolor="#eeeeee"
     borderopacity="1"
     inkscape:showpageshadow="0"
     inkscape:pageopacity="0"
     inkscape:pagecheckerboard="0"
     inkscape:deskcolor="#505050"
     inkscape:zoom="2.2207031"
     inkscape:cx="152.4292"
     inkscape:cy="152.4292"
     inkscape:window-width="2560"
     inkscape:window-height="1351"
     inkscape:window-x="-9"
     inkscape:window-y="-9"
     inkscape:window-maximized="1"
     inkscape:current-layer="Layer_1" />
  <defs
     id="defs1">
    <style
       id="style1">.cls-1{fill:#fff;}</style>
  </defs>
  <path
     class="cls-1"
     d="M 32,2 C 15.458588,2 2,15.458588 2,32 2,48.541412 15.458588,62 32,62 48.541412,62 62,48.541412 62,32 62,15.458588 48.541412,2 32,2 Z M 48.763722,44.404092 44.083416,49.084399 32.267559,37.268542 20.451702,49.084399 15.771394,44.404092 27.585283,32.590202 15.771394,20.774346 20.451702,16.092072 32.267559,27.907929 44.083416,16.092072 48.763722,20.774346 36.947866,32.590202 Z"
     id="path1"
     style="fill:#ffffff;stroke-width:0.196734" />
</svg>

<svg xmlns="http://www.w3.org/2000/svg" width="64" height="64" data-name="Layer 1" viewBox="0 0 64 64"><path d="M32 2C15.459 2 2 15.459 2 32s13.459 30 30 30 30-13.459 30-30S48.541 2 32 2m16.764 42.404-4.68 4.68L32.267 37.27 20.452 49.084l-4.68-4.68L27.584 32.59 15.771 20.774l4.68-4.682 11.817 11.816 11.815-11.816 4.68 4.682L36.949 32.59Z" style="fill:#fff;stroke-width:.196734"/></svg>
